packages/core/src/svgs/sauce.svg

<svg width="24" height="24" viewBox="0 0 24 24" fill="none" xmlns="http://www.w3.org/2000/svg">
<g clip-path="url(#clip0_31_18385)">
<path d="M0 0H24V24H0V0Z" fill="url(#paint0_linear_31_18385)"/>
<path fill-rule="evenodd" clip-rule="evenodd" d="M11.9999 18.8572C13.8186 18.8572 15.5627 18.1348 16.8487 16.8488C18.1346 15.5628 18.8571 13.8187 18.8571 12.0001C18.8571 10.1814 18.1346 8.4373 16.8487 7.15134C15.5627 5.86537 13.8186 5.14293 11.9999 5.14293C10.1813 5.14293 8.43718 5.86537 7.15122 7.15134C5.86525 8.4373 5.1428 10.1814 5.1428 12.0001C5.1428 13.8187 5.86525 15.5628 7.15122 16.8488C8.43718 18.1348 10.1813 18.8572 11.9999 18.8572ZM11.9999 19.2858C13.9322 19.2858 15.7854 18.5182 17.1517 17.1518C18.5181 15.7855 19.2857 13.9324 19.2857 12.0001C19.2857 10.0678 18.5181 8.21463 17.1517 6.84829C15.7854 5.48196 13.9322 4.71436 11.9999 4.71436C10.0677 4.71436 8.21451 5.48196 6.84817 6.84829C5.48183 8.21463 4.71423 10.0678 4.71423 12.0001C4.71423 13.9324 5.48183 15.7855 6.84817 17.1518C8.21451 18.5182 10.0677 19.2858 11.9999 19.2858Z" fill="#6BFF53"/>
<path d="M9.6428 8.78552C9.98566 8.27124 11.3571 8.00124 11.9999 7.92838C12.8546 7.96734 13.677 8.2664 14.3571 8.78552C14.7128 8.57124 15.2571 8.09981 15.4285 7.92838C15.6428 7.71409 15.4285 7.71409 15.6428 7.49981C15.8571 7.28552 16.2857 7.71409 16.0714 7.92838C15.8999 8.09981 15.7842 8.21552 15.6428 8.14267C15.4285 8.35695 14.9999 8.91409 14.9999 9.42838C14.9999 9.94267 15.8571 10.7141 15.8571 11.1427V12.857C15.9299 12.857 16.0714 12.9427 16.0714 13.2855C16.0714 13.7141 14.3571 17.9998 11.9999 17.9998C9.6428 17.9998 7.92852 13.4998 7.92852 13.2855C7.92852 13.1141 8.06995 12.9298 8.1428 12.857V11.1427C8.1428 10.2855 8.99995 9.21409 8.99995 8.99981C8.99995 8.82838 8.42995 8.35695 8.1428 8.14267C8.00138 8.14267 7.71423 8.09981 7.71423 7.92838C7.71423 7.71409 7.92852 7.49981 8.1428 7.49981C8.31423 7.49981 8.35709 7.78695 8.35709 7.92838L9.6428 8.78552Z" fill="url(#paint1_linear_31_18385)"/>
<path d="M8.57141 11.1426C8.74284 9.25693 10.6457 8.35693 12 8.35693C13.3543 8.35693 15.2143 9.64265 15.4286 11.1426C15.4586 11.3569 15.4286 11.4426 15.4286 11.5712H15C14.9271 11.7855 14.8286 12.2569 15 12.4284C15.2143 12.6426 15.4286 12.8569 15.4286 13.2855C15.4286 13.7141 13.5 17.5712 12 17.5712C10.5 17.5712 8.57141 13.7141 8.57141 13.2855C8.57141 12.8569 8.7857 12.6426 8.99998 12.4284C9.17141 12.2569 9.07284 11.7855 8.99998 11.5712H8.57141V11.1426Z" fill="#6BFF53"/>
<path d="M10.3028 12.0984C10.0183 12.0584 9.72934 12.0613 9.44566 12.107L9.41138 11.8927C9.71657 11.8452 10.0272 11.8437 10.3328 11.8884C10.6757 11.9399 11.0357 12.0727 11.2328 12.3684L11.0528 12.4884C10.9071 12.2699 10.6242 12.1499 10.3028 12.1027V12.0984ZM13.8042 12.137C14.0886 12.0955 14.3775 12.097 14.6614 12.1413L14.6957 11.9313C14.3905 11.8838 14.0799 11.8823 13.7742 11.927C13.4314 11.9784 13.0714 12.1113 12.8742 12.407L13.0542 12.527C13.1999 12.3084 13.4828 12.1884 13.8042 12.1413V12.137Z" fill="#2C9B61"/>
<path d="M12.8571 15.8569C12.8571 15.6426 13.1014 14.9055 13.7143 15.2141C14.1428 15.4284 13.7143 16.0712 12.8571 15.8569ZM11.1428 15.8569C11.1428 15.6426 10.8985 14.9055 10.2857 15.2141C9.85711 15.4284 10.2857 16.0712 11.1428 15.8569Z" fill="#239454"/>
<path d="M12.2143 15.2144H11.7858V15.6429H12.2143V15.2144Z" fill="black"/>
<path d="M12.7285 16.3456C12.3428 16.9242 11.5157 16.8427 11.2628 16.3327L11.4514 16.2384C11.6271 16.5856 12.2528 16.6756 12.5528 16.2256L12.7328 16.3456H12.7285Z" fill="#003D09"/>
<path d="M12.4286 14.1431V15.0002H13.0714C13.9286 15.0002 15 13.9288 15 13.2859C15 12.7716 14.43 12.6431 14.1429 12.6431C13.2857 12.6431 12.4286 13.5002 12.4286 14.1431Z" fill="black"/>
<path d="M13.0714 13.4998C13.0714 13.6712 13.2128 13.8555 13.2857 13.9284C14.1428 13.9284 14.7857 12.8569 14.1428 12.8569C13.5 12.8569 13.0714 13.2855 13.0714 13.4998ZM14.3571 14.1426H13.7143V14.3569H14.3571V14.1426Z" fill="white"/>
<path d="M11.5714 14.1431V15.0002H10.9286C10.0714 15.0002 9 13.9288 9 13.2859C9 12.7716 9.57 12.6431 9.85714 12.6431C10.7143 12.6431 11.5714 13.5002 11.5714 14.1431Z" fill="black"/>
<path d="M10.9285 13.4998C10.9285 13.6712 10.7871 13.8555 10.7142 13.9284C9.8571 13.9284 9.21425 12.8569 9.8571 12.8569C10.5 12.8569 10.9285 13.2855 10.9285 13.4998ZM9.64282 14.1426H10.2857V14.3569H9.64282V14.1426Z" fill="white"/>
</g>
<defs>
<linearGradient id="paint0_linear_31_18385" x1="4.46571" y1="4.16143" x2="29.2071" y2="32.58" gradientUnits="userSpaceOnUse">
<stop stop-color="#1A1E21"/>
<stop offset="1" stop-color="#06060A"/>
</linearGradient>
<linearGradient id="paint1_linear_31_18385" x1="11.9228" y1="7.43981" x2="11.9228" y2="17.9998" gradientUnits="userSpaceOnUse">
<stop stop-color="#30A45B"/>
<stop offset="1" stop-color="#1F201F"/>
</linearGradient>
<clipPath id="clip0_31_18385">
<rect width="24" height="24" fill="white"/>
</clipPath>
</defs>
</svg>

<svg xmlns="http://www.w3.org/2000/svg" width="24" height="24" fill="none" viewBox="0 0 24 24"><g clip-path="url(#a)"><path fill="url(#b)" d="M0 0h24v24H0z"/><path fill="#6BFF53" fill-rule="evenodd" d="M12 18.857a6.857 6.857 0 1 0 0-13.714 6.857 6.857 0 0 0 0 13.714m0 .429a7.285 7.285 0 1 0 0-14.571 7.285 7.285 0 0 0 0 14.57" clip-rule="evenodd"/><path fill="url(#c)" d="M9.643 8.786C9.986 8.27 11.357 8 12 7.928a4.2 4.2 0 0 1 2.357.858c.356-.215.9-.686 1.072-.858.214-.214 0-.214.214-.428s.643.214.428.428c-.171.172-.287.288-.428.215-.215.214-.643.771-.643 1.285 0 .515.857 1.286.857 1.715v1.714c.073 0 .214.086.214.429C16.071 13.714 14.357 18 12 18s-4.071-4.5-4.071-4.714c0-.172.141-.356.214-.429v-1.714C8.143 10.286 9 9.214 9 9c0-.172-.57-.643-.857-.857-.142 0-.429-.043-.429-.215a.46.46 0 0 1 .429-.428c.171 0 .214.287.214.428z"/><path fill="#6BFF53" d="M8.571 11.143C8.743 9.257 10.646 8.357 12 8.357s3.214 1.286 3.429 2.786c.03.214 0 .3 0 .428H15c-.073.215-.171.686 0 .857.214.215.429.429.429.857 0 .43-1.929 4.286-3.429 4.286s-3.429-3.857-3.429-4.286.215-.642.429-.857c.171-.171.073-.643 0-.857h-.429z"/><path fill="#2C9B61" d="M10.303 12.098a2.9 2.9 0 0 0-.857.009l-.035-.214c.306-.048.616-.05.922-.005.343.052.703.185.9.48l-.18.12c-.146-.218-.429-.338-.75-.385zm3.501.039a2.9 2.9 0 0 1 .857.004l.035-.21a3.1 3.1 0 0 0-.922-.004c-.343.051-.703.184-.9.48l.18.12c.146-.219.429-.339.75-.386z"/><path fill="#239454" d="M12.857 15.857c0-.214.244-.951.857-.643.429.214 0 .857-.857.643m-1.714 0c0-.214-.245-.951-.857-.643-.429.214 0 .857.857.643"/><path fill="#000" d="M12.214 15.214h-.428v.429h.428z"/><path fill="#003D09" d="M12.729 16.346c-.386.578-1.213.497-1.466-.013l.188-.095c.176.348.802.438 1.102-.012l.18.12z"/><path fill="#000" d="M12.429 14.143V15h.642C13.93 15 15 13.93 15 13.286c0-.514-.57-.643-.857-.643-.857 0-1.714.857-1.714 1.5"/><path fill="#fff" d="M13.071 13.5c0 .171.142.355.215.428.857 0 1.5-1.071.857-1.071s-1.072.429-1.072.643m1.286.643h-.643v.214h.643z"/><path fill="#000" d="M11.571 14.143V15h-.642C10.07 15 9 13.93 9 13.286c0-.514.57-.643.857-.643.857 0 1.714.857 1.714 1.5"/><path fill="#fff" d="M10.929 13.5c0 .171-.142.355-.215.428-.857 0-1.5-1.071-.857-1.071s1.072.429 1.072.643m-1.286.643h.643v.214h-.643z"/></g><defs><linearGradient id="b" x1="4.466" x2="29.207" y1="4.161" y2="32.58" gradientUnits="userSpaceOnUse"><stop stop-color="#1A1E21"/><stop offset="1" stop-color="#06060A"/></linearGradient><linearGradient id="c" x1="11.923" x2="11.923" y1="7.44" y2="18" gradientUnits="userSpaceOnUse"><stop stop-color="#30A45B"/><stop offset="1" stop-color="#1F201F"/></linearGradient><clipPath id="a"><path fill="#fff" d="M0 0h24v24H0z"/></clipPath></defs></svg>
